X:361
T:Allans Schottis
C:Lennart Thörn
R:Schottis
Z:Patrik Månsson, 2008-07-24
O:Röke, Skåne
M:2/4
L:1/16
K:D
Q:1/4=100
|: DEFG A2AG | (FA)de f4 | (Ag)ge c2(cB) | (AB)AG F2D2 |
(DE)FG A2AG | (FA)de f4 | (Ag)ge (cA)Bc | d2d2 d4 :|
|: d2B2 (Bd)dd | d2A2 A3d | c2cB (AG)FG | B2A2 A4 | d2B2 (Bd)dd |
d2A2 A3d | c2cB (AG)FE | D2d2 d4 :|
(:musicend:)

Mall till ny låt.

(:music:)
